X:67
T:The Nine Points of Roguery                                                                        
M:4/4                                                                                               
L:1/8                                                                                               
K:D                                                                                                 
FE|"D"D2 FD GEFE|"D"DEFG "A"ABAF|"D"D2 FD GEFA|"Em"BE E2 "A7"BEGE|                                  
"D"D2 FD GEFE|"D"DEFG "A"ABAF|"D"D2 FA "G"GB"A"Ac|"D"d2 dc d2 :|                                    
AB|"C"=c3 A "G"B3 G|"A7"A2 AB AGFE|"D"D2 FD GEFA|"Em"BE E2 BEEB|                                    
"C"=c cA "G"B2 BG|"A7"Adcd "D"fdAF|"D"D2 FA "G"GB"A"Ac|"D"d2 dc d2 :|                               
fe|"D"d2 fd gefe|"D"defg "A"abaf|"D"d2 fd gefa|"Em"bege bege|                                       
"D"d2 fd gefe|"D"d2 ad "A"bdad|"D"dfaf "A7"gece|"D"d2 dc d2 :|                                      
AB|"C"=c3 A "G"B3 G|"A"A2 AB AGFE|"D"D2 FD GEFA|"Em"BE E2 BEEB|                                     
"C"=c2 cA "G"B2 BG|"A"Adcd "D"fdAF|"D"D2 FA "G"GB"A"Ac|"D"d2 dc d2 :|
